X: 7831
T: Comin' Thro' The Rye
R: strathspey
M: 4/4
K: Gmajor
D>D D<B A>G A<B|D<D E>D G4|D>D d<B A>G A<B|D>D E>D G4|
d>B G<B A>G A<B|d>B (3GBd e3 e|d>B c>A B>G A>B|D<D E>D G4:|

